docs/local/img/sprites/Telegram.svg

<svg width="32" height="32" viewBox="0 0 32 32" fill="none" xmlns="http://www.w3.org/2000/svg">
<g clip-path="url(#clip0_93_1400)">
<path d="M16 32C24.8366 32 32 24.8366 32 16C32 7.16344 24.8366 0 16 0C7.16344 0 0 7.16344 0 16C0 24.8366 7.16344 32 16 32Z" fill="url(#paint0_linear_93_1400)"/>
<path fill-rule="evenodd" clip-rule="evenodd" d="M7.24248 15.8312C11.9068 13.799 15.0171 12.4593 16.5733 11.812C21.0167 9.96384 21.94 9.64279 22.5418 9.63219C22.6741 9.62986 22.9701 9.66266 23.1618 9.81821C23.3236 9.94956 23.3682 10.127 23.3895 10.2515C23.4108 10.376 23.4373 10.6597 23.4163 10.8814C23.1755 13.4114 22.1336 19.5509 21.6035 22.3846C21.3792 23.5836 20.9376 23.9856 20.5101 24.0249C19.5809 24.1104 18.8754 23.4109 17.9754 22.821C16.5672 21.8979 15.7717 21.3232 14.4048 20.4225C12.8251 19.3815 13.8491 18.8093 14.7494 17.8743C14.985 17.6296 19.0789 13.9059 19.1581 13.5681C19.168 13.5258 19.1772 13.3684 19.0836 13.2852C18.9901 13.2021 18.852 13.2305 18.7524 13.2531C18.6111 13.2852 16.3615 14.7721 12.0035 17.7139C11.3649 18.1523 10.7866 18.366 10.2683 18.3548C9.69706 18.3424 8.59814 18.0318 7.78121 17.7662C6.77921 17.4405 5.98284 17.2683 6.05218 16.7152C6.0883 16.427 6.48507 16.1324 7.24248 15.8312Z" fill="white"/>
</g>
<defs>
<linearGradient id="paint0_linear_93_1400" x1="16" y1="0" x2="16" y2="31.7627" gradientUnits="userSpaceOnUse">
<stop stop-color="#2AABEE"/>
<stop offset="1" stop-color="#229ED9"/>
</linearGradient>
<clipPath id="clip0_93_1400">
<rect width="32" height="32" fill="white"/>
</clipPath>
</defs>
</svg>

<svg width="32" height="32" viewBox="0 0 32 32" fill="none" xmlns="http://www.w3.org/2000/svg"><g clip-path="url(#clip0_93_1400)"><path d="M16 32c8.837 0 16-7.163 16-16S24.837 0 16 0 0 7.163 0 16s7.163 16 16 16z" fill="url(#paint0_linear_93_1400)"/><path fill-rule="evenodd" clip-rule="evenodd" d="M7.242 15.831c4.665-2.032 7.775-3.372 9.331-4.019 4.444-1.848 5.367-2.17 5.969-2.18.132-.002.428.03.62.186a.674.674 0 01.228.434c.02.124.047.408.026.63-.24 2.53-1.282 8.669-1.813 11.503-.224 1.199-.665 1.6-1.093 1.64-.93.085-1.635-.614-2.535-1.204-1.408-.923-2.203-1.498-3.57-2.399-1.58-1.04-.556-1.613.344-2.548.236-.244 4.33-3.968 4.41-4.306.009-.042.018-.2-.075-.283-.094-.083-.232-.055-.332-.032-.14.032-2.39 1.52-6.748 4.46-.64.44-1.217.653-1.736.642-.57-.013-1.67-.323-2.487-.589-1.002-.325-1.798-.498-1.729-1.05.036-.289.433-.584 1.19-.885z" fill="#fff"/></g><defs><linearGradient id="paint0_linear_93_1400" x1="16" y1="0" x2="16" y2="31.763" gradientUnits="userSpaceOnUse"><stop stop-color="#2AABEE"/><stop offset="1" stop-color="#229ED9"/></linearGradient><clipPath id="clip0_93_1400"><path fill="#fff" d="M0 0h32v32H0z"/></clipPath></defs></svg>
